public/logos/SR.svg

<?xml version="1.0" encoding="UTF-8"?>
<svg xmlns="http://www.w3.org/2000/svg" xmlns:xlink="http://www.w3.org/1999/xlink" width="56pt" height="56pt" viewBox="0 0 56 56" version="1.1">
<g id="surface1">
<path style=" stroke:none;fill-rule:nonzero;fill:rgb(100%,100%,100%);fill-opacity:1;" d="M 28 54.621094 C 42.703125 54.621094 54.621094 42.703125 54.621094 28 C 54.621094 13.296875 42.703125 1.378906 28 1.378906 C 13.296875 1.378906 1.378906 13.296875 1.378906 28 C 1.378906 42.703125 13.296875 54.621094 28 54.621094 "/>
<path style=" stroke:none;fill-rule:nonzero;fill:rgb(8.378601%,8.714294%,8.441162%);fill-opacity:1;" d="M 28 2.757812 C 14.082031 2.757812 2.757812 14.082031 2.757812 28 C 2.757812 41.917969 14.082031 53.242188 28 53.242188 C 41.917969 53.242188 53.242188 41.917969 53.242188 28 C 53.242188 14.082031 41.917969 2.757812 28 2.757812 Z M 28 56 C 20.519531 56 13.488281 53.085938 8.199219 47.800781 C 2.914062 42.511719 0 35.480469 0 28 C 0 20.519531 2.914062 13.488281 8.199219 8.199219 C 13.488281 2.914062 20.519531 0 28 0 C 35.480469 0 42.511719 2.914062 47.800781 8.199219 C 53.089844 13.488281 56 20.519531 56 28 C 56 35.480469 53.089844 42.511719 47.800781 47.800781 C 42.511719 53.085938 35.480469 56 28 56 "/>
<path style=" stroke:none;fill-rule:nonzero;fill:rgb(8.378601%,8.714294%,8.441162%);fill-opacity:1;" d="M 30.035156 34.21875 L 30.035156 43.527344 L 31.628906 43.527344 L 31.628906 34.21875 C 31.371094 34.273438 31.097656 34.300781 30.8125 34.300781 C 30.542969 34.300781 30.285156 34.273438 30.035156 34.21875 M 25.648438 42.171875 C 25.222656 42.265625 24.789062 42.324219 24.34375 42.351562 C 23.898438 42.378906 23.457031 42.386719 23.019531 42.371094 C 22.40625 42.359375 21.898438 42.210938 21.484375 41.921875 C 21.074219 41.636719 20.867188 41.164062 20.867188 40.5 C 20.867188 40.128906 20.9375 39.8125 21.078125 39.550781 C 21.214844 39.292969 21.398438 39.082031 21.625 38.925781 C 21.851562 38.765625 22.113281 38.648438 22.410156 38.574219 C 22.710938 38.503906 23.019531 38.464844 23.339844 38.464844 C 23.761719 38.464844 24.175781 38.507812 24.574219 38.585938 C 24.972656 38.664062 25.332031 38.757812 25.648438 38.863281 Z M 25.09375 43.578125 C 25.808594 43.464844 26.527344 43.28125 27.242188 43.03125 L 27.242188 36.332031 C 27.242188 35.777344 27.132812 35.285156 26.914062 34.867188 C 26.695312 34.449219 26.402344 34.105469 26.039062 33.832031 C 25.671875 33.558594 25.253906 33.351562 24.78125 33.214844 C 24.3125 33.074219 23.828125 33.003906 23.339844 33.003906 C 22.6875 33.003906 22.03125 33.140625 21.375 33.414062 C 20.71875 33.6875 20.148438 34.089844 19.671875 34.621094 L 20.667969 35.597656 C 20.972656 35.210938 21.359375 34.929688 21.824219 34.75 C 22.289062 34.570312 22.753906 34.480469 23.21875 34.480469 C 23.523438 34.480469 23.824219 34.519531 24.113281 34.597656 C 24.40625 34.679688 24.667969 34.796875 24.894531 34.957031 C 25.117188 35.117188 25.300781 35.3125 25.441406 35.546875 C 25.582031 35.777344 25.648438 36.039062 25.648438 36.332031 L 25.648438 37.707031 C 24.867188 37.375 24.042969 37.210938 23.179688 37.210938 C 22.671875 37.210938 22.1875 37.277344 21.722656 37.410156 C 21.257812 37.542969 20.847656 37.742188 20.488281 38.007812 C 20.128906 38.273438 19.839844 38.613281 19.621094 39.023438 C 19.402344 39.433594 19.292969 39.925781 19.292969 40.5 C 19.292969 41.054688 19.390625 41.535156 19.582031 41.933594 C 19.773438 42.332031 20.03125 42.664062 20.359375 42.929688 C 20.683594 43.195312 21.074219 43.394531 21.523438 43.527344 C 21.976562 43.660156 22.460938 43.726562 22.980469 43.726562 C 23.667969 43.738281 24.375 43.691406 25.09375 43.578125 M 39.261719 34.578125 L 39.261719 33.085938 C 39.113281 33.058594 38.964844 33.039062 38.8125 33.027344 C 38.660156 33.011719 38.511719 33.003906 38.363281 33.003906 C 37.914062 33.003906 37.457031 33.078125 37 33.222656 C 36.539062 33.371094 36.125 33.582031 35.753906 33.863281 C 35.382812 34.140625 35.078125 34.496094 34.847656 34.929688 C 34.613281 35.359375 34.496094 35.867188 34.496094 36.453125 L 34.496094 43.527344 L 36.09375 43.527344 L 36.09375 36.453125 C 36.09375 36.132812 36.15625 35.855469 36.28125 35.617188 C 36.40625 35.375 36.578125 35.175781 36.789062 35.007812 C 37 34.84375 37.246094 34.71875 37.527344 34.640625 C 37.804688 34.558594 38.105469 34.519531 38.421875 34.519531 C 38.570312 34.519531 38.710938 34.523438 38.84375 34.53125 C 38.976562 34.535156 39.113281 34.554688 39.261719 34.578125 "/>
<path style=" stroke:none;fill-rule:nonzero;fill:rgb(8.378601%,8.714294%,8.441162%);fill-opacity:1;" d="M 7.257812 28.890625 C 7.804688 29.617188 8.433594 30.125 9.140625 30.414062 C 9.84375 30.703125 10.597656 30.847656 11.398438 30.847656 C 11.933594 30.847656 12.453125 30.773438 12.960938 30.617188 C 13.464844 30.460938 13.910156 30.222656 14.296875 29.902344 C 14.679688 29.585938 14.988281 29.1875 15.21875 28.710938 C 15.449219 28.238281 15.566406 27.6875 15.566406 27.0625 C 15.566406 26.515625 15.460938 26.046875 15.253906 25.660156 C 15.046875 25.273438 14.777344 24.949219 14.453125 24.691406 C 14.125 24.429688 13.769531 24.21875 13.382812 24.054688 C 12.996094 23.894531 12.617188 23.765625 12.246094 23.675781 C 12.128906 23.664062 11.976562 23.617188 11.789062 23.542969 C 11.605469 23.46875 11.429688 23.375 11.265625 23.265625 C 11.101562 23.152344 10.964844 23.027344 10.855469 22.886719 C 10.742188 22.746094 10.695312 22.585938 10.710938 22.40625 C 10.738281 22.066406 10.855469 21.824219 11.066406 21.683594 C 11.273438 21.542969 11.503906 21.472656 11.757812 21.472656 C 12.097656 21.472656 12.445312 21.542969 12.800781 21.683594 C 13.160156 21.824219 13.433594 21.992188 13.628906 22.183594 L 15.164062 20.070312 C 14.570312 19.59375 13.9375 19.277344 13.269531 19.109375 C 12.601562 18.949219 12.007812 18.867188 11.488281 18.867188 C 10.851562 18.867188 10.285156 18.96875 9.796875 19.167969 C 9.304688 19.367188 8.894531 19.636719 8.558594 19.96875 C 8.226562 20.304688 7.972656 20.683594 7.800781 21.117188 C 7.632812 21.546875 7.546875 21.984375 7.546875 22.429688 C 7.546875 22.847656 7.625 23.253906 7.78125 23.65625 C 7.9375 24.054688 8.167969 24.425781 8.480469 24.769531 C 8.792969 25.109375 9.183594 25.40625 9.652344 25.660156 C 10.117188 25.914062 10.679688 26.089844 11.332031 26.195312 C 11.851562 26.269531 12.207031 26.449219 12.390625 26.730469 C 12.578125 27.011719 12.59375 27.324219 12.445312 27.664062 C 12.285156 28.007812 11.972656 28.175781 11.511719 28.175781 C 11.109375 28.175781 10.652344 28.066406 10.140625 27.84375 C 9.628906 27.621094 9.15625 27.300781 8.726562 26.886719 L 7.257812 28.890625 "/>
<path style=" stroke:none;fill-rule:nonzero;fill:rgb(8.378601%,8.714294%,8.441162%);fill-opacity:1;" d="M 40.714844 28.308594 C 40.449219 28.445312 40.140625 28.523438 39.792969 28.542969 C 39.445312 28.566406 39.113281 28.53125 38.800781 28.445312 C 38.488281 28.355469 38.222656 28.203125 38 27.988281 C 37.777344 27.773438 37.65625 27.492188 37.644531 27.152344 L 37.644531 22.632812 C 37.6875 22.304688 37.824219 22.039062 38.054688 21.839844 C 38.285156 21.640625 38.554688 21.5 38.867188 21.417969 C 39.179688 21.335938 39.503906 21.316406 39.835938 21.359375 C 40.171875 21.40625 40.464844 21.496094 40.714844 21.628906 Z M 43.835938 14.878906 L 40.714844 14.878906 L 40.714844 19.269531 C 40.136719 19 39.507812 18.867188 38.824219 18.867188 C 38.289062 18.867188 37.765625 18.960938 37.253906 19.144531 C 36.742188 19.332031 36.285156 19.589844 35.882812 19.925781 C 35.484375 20.257812 35.160156 20.667969 34.914062 21.148438 C 34.667969 21.632812 34.546875 22.179688 34.546875 22.785156 L 34.546875 26.863281 C 34.605469 27.605469 34.773438 28.234375 35.046875 28.746094 C 35.324219 29.257812 35.679688 29.667969 36.117188 29.980469 C 36.554688 30.292969 37.046875 30.515625 37.597656 30.648438 C 38.148438 30.78125 38.726562 30.847656 39.335938 30.847656 C 40.0625 30.847656 40.816406 30.773438 41.597656 30.617188 C 42.375 30.460938 43.121094 30.246094 43.835938 29.980469 L 43.835938 14.878906 "/>
<path style=" stroke:none;fill-rule:nonzero;fill:rgb(8.378601%,8.714294%,8.441162%);fill-opacity:1;" d="M 32.5 27.609375 L 32.5 19.488281 C 32.5 18.730469 32.359375 18.085938 32.078125 17.550781 C 31.792969 17.015625 31.421875 16.582031 30.953125 16.25 C 30.484375 15.914062 29.949219 15.671875 29.347656 15.515625 C 28.746094 15.359375 28.121094 15.28125 27.46875 15.28125 C 26.753906 15.28125 26.042969 15.367188 25.328125 15.546875 C 24.617188 15.726562 23.941406 15.96875 23.300781 16.28125 L 23.300781 18.914062 L 23.292969 18.914062 L 23.292969 27.914062 C 22.9375 28.046875 22.566406 28.113281 22.183594 28.113281 C 21.660156 28.113281 21.210938 27.96875 20.824219 27.679688 C 20.4375 27.390625 20.242188 26.90625 20.242188 26.222656 L 20.242188 18.914062 L 17.148438 18.914062 L 17.148438 26.402344 C 17.148438 27.21875 17.28125 27.898438 17.550781 28.449219 C 17.816406 29 18.171875 29.4375 18.617188 29.765625 C 19.0625 30.089844 19.578125 30.324219 20.164062 30.464844 C 20.753906 30.605469 21.363281 30.675781 22.003906 30.675781 C 22.804688 30.675781 23.578125 30.589844 24.320312 30.421875 C 25.0625 30.25 25.746094 30.054688 26.367188 29.832031 L 26.367188 27.039062 L 26.371094 27.039062 L 26.371094 18.375 C 26.742188 18.167969 27.191406 18.066406 27.667969 18.066406 C 28.113281 18.066406 28.515625 18.1875 28.882812 18.433594 C 29.246094 18.675781 29.425781 19.066406 29.425781 19.601562 L 29.425781 27.488281 C 29.851562 27.308594 30.316406 27.21875 30.816406 27.21875 C 31.441406 27.21875 32.003906 27.347656 32.5 27.609375 "/>
<path style=" stroke:none;fill-rule:nonzero;fill:rgb(74.926758%,7.099915%,42.727661%);fill-opacity:1;" d="M 32.824219 30.289062 C 32.609375 29.375 31.792969 28.691406 30.8125 28.691406 C 29.671875 28.691406 28.746094 29.617188 28.746094 30.761719 C 28.746094 31.902344 29.671875 32.832031 30.8125 32.832031 C 31.78125 32.832031 32.589844 32.160156 32.816406 31.265625 C 32.640625 31.339844 32.460938 31.398438 32.265625 31.421875 C 31.664062 31.496094 31.054688 31.355469 30.640625 30.976562 C 30.589844 30.984375 30.453125 31.003906 30.363281 31.011719 C 30.414062 30.921875 30.453125 30.855469 30.515625 30.746094 C 30.839844 30.832031 31.183594 30.859375 31.539062 30.816406 C 32.023438 30.757812 32.460938 30.566406 32.824219 30.289062 "/>
</g>
</svg>

<svg xmlns="http://www.w3.org/2000/svg" width="56pt" height="56pt" viewBox="0 0 56 56"><path d="M28 54.621c14.703 0 26.621-11.918 26.621-26.621S42.703 1.379 28 1.379 1.379 13.297 1.379 28 13.297 54.621 28 54.621" style="stroke:none;fill-rule:nonzero;fill:#fff;fill-opacity:1"/><path d="M28 2.758C14.082 2.758 2.758 14.082 2.758 28S14.082 53.242 28 53.242 53.242 41.918 53.242 28 41.918 2.758 28 2.758M28 56c-7.48 0-14.512-2.914-19.8-8.2C2.913 42.513 0 35.48 0 28S2.914 13.488 8.2 8.2C13.487 2.913 20.52 0 28 0s14.512 2.914 19.8 8.2C53.09 13.487 56 20.52 56 28s-2.91 14.512-8.2 19.8C42.513 53.087 35.48 56 28 56" style="stroke:none;fill-rule:nonzero;fill:#151616;fill-opacity:1"/><path d="M30.035 34.219v9.308h1.594V34.22a3.9 3.9 0 0 1-1.594 0m-4.387 7.953q-.637.14-1.304.18-.669.041-1.324.02c-.614-.013-1.122-.161-1.536-.45q-.616-.427-.617-1.422 0-.556.211-.95c.137-.257.32-.468.547-.624a2.3 2.3 0 0 1 .785-.352c.3-.07.61-.11.93-.11.422 0 .836.044 1.234.122a9 9 0 0 1 1.074.277Zm-.554 1.406a12.4 12.4 0 0 0 2.148-.547v-6.699c0-.555-.11-1.047-.328-1.465a3.05 3.05 0 0 0-.875-1.035 3.9 3.9 0 0 0-1.258-.617 5 5 0 0 0-1.441-.211 5.1 5.1 0 0 0-1.965.41 4.7 4.7 0 0 0-1.703 1.207l.996.977a2.67 2.67 0 0 1 1.156-.848q.697-.27 1.395-.27c.304 0 .605.04.894.118.293.082.555.199.782.359q.334.239.546.59c.141.23.207.492.207.785v1.375a6.25 6.25 0 0 0-2.468-.496q-.76 0-1.457.2a3.8 3.8 0 0 0-1.235.597q-.54.399-.867 1.015-.328.615-.328 1.477.001.834.289 1.434.286.597.777.996.489.398 1.164.597.68.2 1.457.2 1.034.019 2.114-.149m14.168-9v-1.492a4 4 0 0 0-.45-.059 4 4 0 0 0-.449-.023q-.675 0-1.363.219a4.1 4.1 0 0 0-1.246.64 3.2 3.2 0 0 0-.906 1.067q-.352.644-.352 1.523v7.074h1.598v-7.074q0-.48.187-.836c.125-.242.297-.441.508-.61.211-.163.457-.288.738-.366q.418-.122.895-.121.222 0 .422.011c.133.004.27.024.418.047M7.258 28.89q.821 1.09 1.883 1.524 1.056.435 2.257.434.803.001 1.563-.23.756-.235 1.336-.716.575-.475.922-1.191.346-.71.347-1.648 0-.822-.312-1.403a3.1 3.1 0 0 0-.8-.969 4.6 4.6 0 0 0-1.071-.636 8 8 0 0 0-1.137-.38 1.8 1.8 0 0 1-.457-.132 3 3 0 0 1-.523-.277 1.8 1.8 0 0 1-.41-.38.65.65 0 0 1-.145-.48q.04-.511.355-.722.31-.211.692-.211.51 0 1.043.21c.36.141.633.31.828.5l1.535-2.113a4.9 4.9 0 0 0-1.894-.96q-1.002-.242-1.782-.243c-.636 0-1.203.102-1.691.301-.492.2-.902.469-1.238.8a3.4 3.4 0 0 0-.758 1.15 3.6 3.6 0 0 0-.254 1.312q0 .625.234 1.226c.157.399.387.77.7 1.114q.468.51 1.171.89c.465.254 1.028.43 1.68.535q.782.113 1.059.535.279.424.054.934c-.16.344-.472.512-.933.512q-.604 0-1.371-.332a4.8 4.8 0 0 1-1.414-.957zM40.715 28.309a2.3 2.3 0 0 1-.922.234 3 3 0 0 1-.992-.098 1.9 1.9 0 0 1-.801-.457 1.18 1.18 0 0 1-.355-.836v-4.52q.064-.492.41-.792.344-.3.812-.422.47-.123.969-.059.504.07.879.27Zm3.12-13.43h-3.12v4.39a4.4 4.4 0 0 0-1.89-.402 4.6 4.6 0 0 0-1.571.278 4.6 4.6 0 0 0-1.371.78 3.9 3.9 0 0 0-.969 1.223q-.368.729-.367 1.637v4.078q.088 1.114.5 1.883.415.767 1.07 1.234.656.47 1.48.668.826.2 1.739.2 1.09.001 2.262-.23a15 15 0 0 0 2.238-.638zM32.5 27.61v-8.122q0-1.136-.422-1.937a3.7 3.7 0 0 0-1.125-1.301 4.8 4.8 0 0 0-1.605-.734 7.4 7.4 0 0 0-1.88-.235 8.7 8.7 0 0 0-2.14.266q-1.066.268-2.027.734v2.633h-.008v9a3.2 3.2 0 0 1-1.11.2 2.2 2.2 0 0 1-1.359-.434q-.581-.434-.582-1.457v-7.309h-3.094v7.488c0 .817.133 1.496.403 2.047q.397.825 1.066 1.317.668.487 1.547.699c.59.14 1.2.21 1.84.21q1.202 0 2.316-.253a18 18 0 0 0 2.047-.59v-2.793h.004v-8.664c.371-.207.82-.309 1.297-.309q.666 0 1.215.368.544.364.543 1.168v7.886q.64-.27 1.39-.27.939 0 1.684.391" style="stroke:none;fill-rule:nonzero;fill:#151616;fill-opacity:1"/><path d="M32.824 30.29a2.07 2.07 0 0 0-2.011-1.599 2.07 2.07 0 0 0 0 4.14c.968.001 1.777-.67 2.003-1.565a2 2 0 0 1-.55.156c-.602.074-1.211-.067-1.625-.445-.051.007-.188.027-.278.035l.153-.266c.324.086.668.113 1.023.07.484-.058.922-.25 1.285-.527" style="stroke:none;fill-rule:nonzero;fill:#bf126d;fill-opacity:1"/></svg>
